curriculum/images/exercise-icons/grades.svg

<svg width="100" height="100" viewBox="0 0 100 100" fill="none" xmlns="http://www.w3.org/2000/svg">
<path d="M49.5761 90C71.6675 90 89.5761 72.0914 89.5761 50C89.5761 27.9086 71.6675 10 49.5761 10C27.4847 10 9.57605 27.9086 9.57605 50C9.57605 72.0914 27.4847 90 49.5761 90Z" fill="#DAEDF7" stroke="#DAEDF7" stroke-miterlimit="10"/>
<path d="M89.424 22.129H11.729C11.1767 22.129 10.729 22.5767 10.729 23.129V71.949C10.729 72.5013 11.1767 72.949 11.729 72.949H89.424C89.9763 72.949 90.424 72.5013 90.424 71.949V23.129C90.424 22.5767 89.9763 22.129 89.424 22.129Z" fill="#4ACFFF"/>
<path d="M89.424 22.129H11.729C11.1767 22.129 10.729 22.5767 10.729 23.129V71.949C10.729 72.5013 11.1767 72.949 11.729 72.949H89.424C89.9763 72.949 90.424 72.5013 90.424 71.949V23.129C90.424 22.5767 89.9763 22.129 89.424 22.129Z" stroke="#45413C" stroke-miterlimit="10"/>
<path d="M42.116 72.946V66.28H47.076C46.9829 62.9485 45.594 59.7847 43.2046 57.4612C40.8152 55.1377 37.6138 53.8378 34.281 53.8378C30.9482 53.8378 27.7468 55.1377 25.3574 57.4612C22.9681 59.7847 21.5792 62.9485 21.486 66.28H26.446V72.946H42.116Z" fill="#8CA4B8"/>
<path d="M34.281 57.584C36.958 57.5841 39.5676 58.4235 41.7426 59.9842C43.9176 61.5448 45.5486 63.7481 46.406 66.284H47.076C46.9829 62.9525 45.594 59.7887 43.2046 57.4652C40.8152 55.1417 37.6138 53.8417 34.281 53.8417C30.9482 53.8417 27.7468 55.1417 25.3574 57.4652C22.9681 59.7887 21.5792 62.9525 21.486 66.284H22.157C23.0144 63.7482 24.6453 61.5451 26.8201 59.9845C28.9949 58.4239 31.6042 57.5843 34.281 57.584Z" fill="#ADC4D9"/>
<path d="M26.446 66.281C26.3626 65.5745 26.1037 64.9 25.693 64.319C25.2602 63.6205 25.0387 62.8117 25.055 61.9901" stroke="#45413C" stroke-linecap="round" stroke-linejoin="round"/>
<path d="M26.446 66.281H21.486V72.946H26.446V66.281Z" fill="#FFCEBF"/>
<path d="M26.446 66.281H21.486V69.821H26.446V66.281Z" fill="#FFB59E"/>
<path d="M26.446 66.281H21.486V72.946H26.446V66.281Z" stroke="#45413C" stroke-linecap="round" stroke-linejoin="round"/>
<path d="M42.116 66.281C42.1994 65.5743 42.4586 64.8997 42.87 64.319C43.3028 63.6205 43.5244 62.8117 43.508 61.9901" stroke="#45413C" stroke-linecap="round" stroke-linejoin="round"/>
<path d="M47.076 66.281H42.116V72.946H47.076V66.281Z" fill="#FFCEBF"/>
<path d="M47.076 66.281H42.116V69.821H47.076V66.281Z" fill="#FFB59E"/>
<path d="M47.076 66.281H42.116V72.946H47.076V66.281Z" stroke="#45413C" stroke-linecap="round" stroke-linejoin="round"/>
<path d="M42.116 72.946V66.28H47.076C46.9829 62.9485 45.594 59.7847 43.2046 57.4612C40.8152 55.1377 37.6138 53.8378 34.281 53.8378C30.9482 53.8378 27.7468 55.1377 25.3574 57.4612C22.9681 59.7847 21.5792 62.9485 21.486 66.28H26.446V72.946H42.116Z" stroke="#45413C" stroke-linecap="round" stroke-linejoin="round"/>
<path d="M34.281 53.486C32.7522 53.4844 31.2354 53.7574 29.803 54.292L34.276 68.411L38.759 54.292C37.3267 53.7573 35.8099 53.4843 34.281 53.486Z" fill="white" stroke="#45413C" stroke-linecap="round" stroke-linejoin="round"/>
<path d="M36.786 60.506L34.281 57.251L31.777 60.504" stroke="#45413C" stroke-linecap="round" stroke-linejoin="round"/>
<path d="M34.281 68.409V72.946" stroke="#45413C" stroke-linecap="round" stroke-linejoin="round"/>
<path d="M42.306 56.311V56.321L42.096 59.711L39.326 59.541L39.576 63.381L34.276 68.411" stroke="#45413C" stroke-linecap="round" stroke-linejoin="round"/>
<path d="M34.276 68.411L28.986 63.381L29.236 59.541L26.466 59.711L26.256 56.321V56.311" stroke="#45413C" stroke-linecap="round" stroke-linejoin="round"/>
<path d="M43.969 43.408C43.969 40.8407 42.9492 38.3786 41.1338 36.5632C39.3185 34.7479 36.8563 33.728 34.289 33.728C31.7217 33.728 29.2596 34.7479 27.4442 36.5632C25.6289 38.3786 24.609 40.8407 24.609 43.408V48.248C24.609 48.8836 24.7342 49.513 24.9774 50.1002C25.2207 50.6874 25.5772 51.221 26.0266 51.6704C26.476 52.1199 27.0096 52.4764 27.5968 52.7196C28.184 52.9628 28.8134 53.088 29.449 53.088H39.129C39.7646 53.088 40.394 52.9628 40.9812 52.7196C41.5684 52.4764 42.102 52.1199 42.5514 51.6704C43.0008 51.221 43.3574 50.6874 43.6006 50.1002C43.8438 49.513 43.969 48.8836 43.969 48.248V43.408Z" fill="#FFC44D"/>
<path d="M34.289 33.729C33.0179 33.7289 31.7591 33.9791 30.5847 34.4655C29.4103 34.9518 28.3432 35.6648 27.4443 36.5636C26.5454 37.4624 25.8324 38.5294 25.3459 39.7038C24.8594 40.8782 24.609 42.1369 24.609 43.408V46.433C24.609 43.8657 25.6289 41.4036 27.4442 39.5882C29.2596 37.7729 31.7217 36.753 34.289 36.753C36.8563 36.753 39.3185 37.7729 41.1338 39.5882C42.9492 41.4036 43.969 43.8657 43.969 46.433V43.408C43.969 42.1369 43.7186 40.8782 43.2321 39.7038C42.7457 38.5294 42.0326 37.4624 41.1337 36.5636C40.2349 35.6648 39.1677 34.9518 37.9933 34.4655C36.8189 33.9791 35.5602 33.7289 34.289 33.729Z" fill="#FFDB94"/>
<path d="M43.969 43.408C43.969 40.8407 42.9492 38.3786 41.1338 36.5632C39.3185 34.7479 36.8563 33.728 34.289 33.728C31.7217 33.728 29.2596 34.7479 27.4442 36.5632C25.6289 38.3786 24.609 40.8407 24.609 43.408V48.248C24.609 48.8836 24.7342 49.513 24.9774 50.1002C25.2207 50.6874 25.5772 51.221 26.0266 51.6704C26.476 52.1199 27.0096 52.4764 27.5968 52.7196C28.184 52.9628 28.8134 53.088 29.449 53.088H39.129C39.7646 53.088 40.394 52.9628 40.9812 52.7196C41.5684 52.4764 42.102 52.1199 42.5514 51.6704C43.0008 51.221 43.3574 50.6874 43.6006 50.1002C43.8438 49.513 43.969 48.8836 43.969 48.248V43.408Z" stroke="#45413C" stroke-miterlimit="10"/>
<path d="M36.925 54.251L34.276 57.251L31.645 54.251L31.651 49.397H36.931L36.925 54.251Z" fill="#FFCEBF" stroke="#45413C" stroke-linecap="round" stroke-linejoin="round"/>
<path d="M41.549 43.772V42.8C41.549 42.637 41.543 42.476 41.532 42.315C40.0321 42.372 38.5482 41.9906 37.2617 41.2173C35.9753 40.4439 34.9422 39.3124 34.289 37.961C33.6357 39.3123 32.6026 40.4438 31.3162 41.2171C30.0298 41.9904 28.5459 42.3719 27.046 42.315C27.035 42.476 27.029 42.637 27.029 42.8V43.769C26.676 43.8349 26.3589 44.0268 26.1368 44.309C25.9146 44.5911 25.8025 44.9443 25.8212 45.303C25.8399 45.6616 25.9882 46.0012 26.2385 46.2588C26.4888 46.5163 26.8241 46.6741 27.182 46.703C27.5226 48.3359 28.4152 49.8017 29.7095 50.8538C31.0038 51.906 32.621 52.4804 34.289 52.4804C35.957 52.4804 37.5742 51.906 38.8685 50.8538C40.1628 49.8017 41.0554 48.3359 41.396 46.703C41.754 46.6741 42.0893 46.5163 42.3396 46.2588C42.5899 46.0012 42.7381 45.6616 42.7568 45.303C42.7755 44.9443 42.6634 44.5911 42.4412 44.309C42.2191 44.0268 41.902 43.8349 41.549 43.769V43.772Z" fill="#FFCEBF" stroke="#45413C" stroke-linecap="round" stroke-linejoin="round"/>
<path d="M31.5659 42.8C31.3863 42.8 31.2108 42.8532 31.0615 42.953C30.9121 43.0528 30.7958 43.1946 30.727 43.3605C30.6583 43.5264 30.6403 43.709 30.6754 43.8851C30.7104 44.0613 30.7969 44.2231 30.9239 44.35C31.0509 44.477 31.2126 44.5635 31.3888 44.5985C31.5649 44.6336 31.7475 44.6156 31.9134 44.5469C32.0793 44.4781 32.2211 44.3618 32.3209 44.2124C32.4207 44.0631 32.4739 43.8876 32.4739 43.708C32.4739 43.4672 32.3783 43.2362 32.208 43.0659C32.0377 42.8957 31.8067 42.8 31.5659 42.8Z" fill="#45413C"/>
<path d="M37.011 42.8C36.8314 42.8 36.6559 42.8532 36.5066 42.953C36.3573 43.0528 36.2409 43.1946 36.1721 43.3605C36.1034 43.5264 36.0854 43.709 36.1205 43.8851C36.1555 44.0613 36.242 44.2231 36.369 44.35C36.496 44.477 36.6578 44.5635 36.8339 44.5985C37.01 44.6336 37.1926 44.6156 37.3585 44.5469C37.5244 44.4781 37.6662 44.3618 37.766 44.2124C37.8658 44.0631 37.919 43.8876 37.919 43.708C37.919 43.4672 37.8234 43.2362 37.6531 43.0659C37.4828 42.8957 37.2518 42.8 37.011 42.8Z" fill="#45413C"/>
<path d="M30.357 47.038C30.8579 47.038 31.264 46.6319 31.264 46.131C31.264 45.6301 30.8579 45.224 30.357 45.224C29.8561 45.224 29.45 45.6301 29.45 46.131C29.45 46.6319 29.8561 47.038 30.357 47.038Z" fill="#FFB59E"/>
<path d="M38.221 47.038C38.7219 47.038 39.128 46.6319 39.128 46.131C39.128 45.6301 38.7219 45.224 38.221 45.224C37.7201 45.224 37.314 45.6301 37.314 46.131C37.314 46.6319 37.7201 47.038 38.221 47.038Z" fill="#FFB59E"/>
<path d="M32.474 48.3C33.0116 48.6579 33.6431 48.8489 34.289 48.8489C34.9349 48.8489 35.5664 48.6579 36.104 48.3" stroke="#45413C" stroke-linecap="round" stroke-linejoin="round"/>
<path opacity="0.15" d="M49.999 84.5001C62.1189 84.5001 71.944 83.7242 71.944 82.7671C71.944 81.8099 62.1189 81.0341 49.999 81.0341C37.8791 81.0341 28.054 81.8099 28.054 82.7671C28.054 83.7242 37.8791 84.5001 49.999 84.5001Z" fill="#45413C"/>
<path d="M55.198 72.949H44.803V78.724H55.198V72.949Z" fill="#87898C"/>
<path d="M55.198 72.949H44.803V76.125H55.198V72.949Z" fill="#45413C"/>
<path d="M55.198 72.949H44.803V78.724H55.198V72.949Z" stroke="#45413C" stroke-miterlimit="10"/>
<path d="M71.3681 81.612C71.3681 81.6879 71.3531 81.763 71.3241 81.833C71.295 81.9031 71.2524 81.9668 71.1987 82.0204C71.1451 82.0739 71.0813 82.1164 71.0112 82.1454C70.9411 82.1743 70.866 82.1891 70.7901 82.189H29.2101C29.0571 82.189 28.9103 82.1282 28.8021 82.02C28.6939 81.9118 28.6331 81.765 28.6331 81.612V81.034C28.6331 80.4213 28.8765 79.8338 29.3097 79.4006C29.7429 78.9674 30.3304 78.724 30.9431 78.724H69.0581C69.6707 78.724 70.2583 78.9674 70.6915 79.4006C71.1247 79.8338 71.3681 80.4213 71.3681 81.034V81.612Z" fill="#87898C" stroke="#45413C" stroke-linecap="round" stroke-linejoin="round"/>
<path d="M82.649 31.966H51.999C50.8945 31.966 49.999 32.8614 49.999 33.966V59.399C49.999 60.5036 50.8945 61.399 51.999 61.399H82.649C83.7536 61.399 84.649 60.5036 84.649 59.399V33.966C84.649 32.8614 83.7536 31.966 82.649 31.966Z" fill="#DAEDF7"/>
<path d="M84.649 38.662V33.962C84.649 33.4316 84.4383 32.9229 84.0632 32.5478C83.6881 32.1728 83.1794 31.962 82.649 31.962H52C51.4696 31.962 50.9609 32.1728 50.5858 32.5478C50.2107 32.9229 50 33.4316 50 33.962V38.662C49.9999 38.3586 50.0595 38.0582 50.1756 37.7779C50.2916 37.4976 50.4618 37.2429 50.6763 37.0283C50.8908 36.8138 51.1455 36.6436 51.4258 36.5276C51.7062 36.4116 52.0066 36.3519 52.31 36.352H82.34C82.9521 36.3539 83.5386 36.5979 83.9714 37.0307C84.4042 37.4635 84.6472 38.05 84.649 38.662Z" fill="#DAEDF7"/>
<path d="M54.0391 38.299V57.142H82.1981" stroke="#45413C" stroke-linecap="round" stroke-linejoin="round"/>
<path d="M61.454 57.142H56.921V53.609C56.921 53.3438 57.0264 53.0894 57.2139 52.9019C57.4014 52.7144 57.6558 52.609 57.921 52.609H60.454C60.7192 52.609 60.9736 52.7144 61.1611 52.9019C61.3487 53.0894 61.454 53.3438 61.454 53.609V57.142Z" fill="#FFE500" stroke="#45413C" stroke-linecap="round" stroke-linejoin="round"/>
<path d="M69.009 57.142H64.476V50.587C64.476 50.3218 64.5814 50.0675 64.7689 49.8799C64.9564 49.6924 65.2108 49.587 65.476 49.587H68.009C68.2742 49.587 68.5286 49.6924 68.7161 49.8799C68.9037 50.0675 69.009 50.3218 69.009 50.587V57.142Z" fill="#FF6242" stroke="#45413C" stroke-linecap="round" stroke-linejoin="round"/>
<path d="M76.564 57.142H72.031V46.054C72.031 45.7888 72.1364 45.5344 72.3239 45.3469C72.5114 45.1594 72.7658 45.054 73.031 45.054H75.564C75.8292 45.054 76.0836 45.1594 76.2711 45.3469C76.4587 45.5344 76.564 45.7888 76.564 46.054V57.142Z" fill="#00B8F0" stroke="#45413C" stroke-linecap="round" stroke-linejoin="round"/>
<path d="M72.099 36.3521H80.184" stroke="#45413C" stroke-linecap="round" stroke-linejoin="round"/>
<path d="M75.564 39.817H80.184" stroke="#45413C" stroke-linecap="round" stroke-linejoin="round"/>
<path d="M79.0291 43.282H80.1841" stroke="#45413C" stroke-linecap="round" stroke-linejoin="round"/>
<path d="M82.649 31.966H51.999C50.8945 31.966 49.999 32.8614 49.999 33.966V59.399C49.999 60.5036 50.8945 61.399 51.999 61.399H82.649C83.7536 61.399 84.649 60.5036 84.649 59.399V33.966C84.649 32.8614 83.7536 31.966 82.649 31.966Z" stroke="#45413C" stroke-miterlimit="10"/>
</svg>

<svg xmlns="http://www.w3.org/2000/svg" width="100" height="100" fill="none" viewBox="0 0 100 100"><path fill="#daedf7" stroke="#daedf7" stroke-miterlimit="10" d="M49.576 90c22.092 0 40-17.909 40-40s-17.908-40-40-40-40 17.909-40 40 17.909 40 40 40Z"/><path fill="#4acfff" d="M89.424 22.129H11.729a1 1 0 0 0-1 1v48.82a1 1 0 0 0 1 1h77.695a1 1 0 0 0 1-1v-48.82a1 1 0 0 0-1-1"/><path stroke="#45413c" stroke-miterlimit="10" d="M89.424 22.129H11.729a1 1 0 0 0-1 1v48.82a1 1 0 0 0 1 1h77.695a1 1 0 0 0 1-1v-48.82a1 1 0 0 0-1-1Z"/><path fill="#8ca4b8" d="M42.116 72.946V66.28h4.96a12.8 12.8 0 0 0-25.59 0h4.96v6.666z"/><path fill="#adc4d9" d="M34.281 57.584a12.8 12.8 0 0 1 12.125 8.7h.67a12.8 12.8 0 0 0-25.59 0h.671a12.8 12.8 0 0 1 12.124-8.7"/><path stroke="#45413c" stroke-linecap="round" stroke-linejoin="round" d="M26.446 66.281a4.26 4.26 0 0 0-.753-1.962 4.26 4.26 0 0 1-.638-2.329"/><path fill="#ffcebf" d="M26.446 66.281h-4.96v6.665h4.96z"/><path fill="#ffb59e" d="M26.446 66.281h-4.96v3.54h4.96z"/><path stroke="#45413c" stroke-linecap="round" stroke-linejoin="round" d="M26.446 66.281h-4.96v6.665h4.96zM42.116 66.281a4.26 4.26 0 0 1 .754-1.962 4.26 4.26 0 0 0 .638-2.329"/><path fill="#ffcebf" d="M47.076 66.281h-4.96v6.665h4.96z"/><path fill="#ffb59e" d="M47.076 66.281h-4.96v3.54h4.96z"/><path stroke="#45413c" stroke-linecap="round" stroke-linejoin="round" d="M47.076 66.281h-4.96v6.665h4.96z"/><path stroke="#45413c" stroke-linecap="round" stroke-linejoin="round" d="M42.116 72.946V66.28h4.96a12.8 12.8 0 0 0-25.59 0h4.96v6.666z"/><path fill="#fff" stroke="#45413c" stroke-linecap="round" stroke-linejoin="round" d="M34.281 53.486a12.8 12.8 0 0 0-4.478.806l4.473 14.119 4.483-14.119a12.8 12.8 0 0 0-4.478-.806"/><path stroke="#45413c" stroke-linecap="round" stroke-linejoin="round" d="m36.786 60.506-2.505-3.255-2.504 3.253M34.281 68.409v4.537M42.306 56.311v.01l-.21 3.39-2.77-.17.25 3.84-5.3 5.03"/><path stroke="#45413c" stroke-linecap="round" stroke-linejoin="round" d="m34.276 68.411-5.29-5.03.25-3.84-2.77.17-.21-3.39v-.01"/><path fill="#ffc44d" d="M43.969 43.408a9.68 9.68 0 1 0-19.36 0v4.84a4.84 4.84 0 0 0 4.84 4.84h9.68a4.84 4.84 0 0 0 4.84-4.84z"/><path fill="#ffdb94" d="M34.289 33.729a9.68 9.68 0 0 0-9.68 9.679v3.025a9.68 9.68 0 0 1 19.36 0v-3.025a9.68 9.68 0 0 0-9.68-9.679"/><path stroke="#45413c" stroke-miterlimit="10" d="M43.969 43.408a9.68 9.68 0 1 0-19.36 0v4.84a4.84 4.84 0 0 0 4.84 4.84h9.68a4.84 4.84 0 0 0 4.84-4.84z"/><path fill="#ffcebf" stroke="#45413c" stroke-linecap="round" stroke-linejoin="round" d="m36.925 54.251-2.649 3-2.631-3 .006-4.854h5.28z"/><path fill="#ffcebf" stroke="#45413c" stroke-linecap="round" stroke-linejoin="round" d="M41.549 43.772V42.8q0-.244-.017-.485a7.72 7.72 0 0 1-7.243-4.354 7.72 7.72 0 0 1-7.243 4.354 7 7 0 0 0-.017.485v.969a1.481 1.481 0 0 0 .153 2.934 7.26 7.26 0 0 0 14.214 0 1.482 1.482 0 0 0 .153-2.934z"/><path fill="#45413c" d="M31.566 42.8a.907.907 0 1 0 0 1.815.907.907 0 0 0 0-1.815M37.011 42.8a.907.907 0 1 0 0 1.815.907.907 0 0 0 0-1.815"/><path fill="#ffb59e" d="M30.357 47.038a.907.907 0 1 0 0-1.814.907.907 0 0 0 0 1.814M38.221 47.038a.907.907 0 1 0 0-1.814.907.907 0 0 0 0 1.814"/><path stroke="#45413c" stroke-linecap="round" stroke-linejoin="round" d="M32.474 48.3a3.275 3.275 0 0 0 3.63 0"/><path fill="#45413c" d="M49.999 84.5c12.12 0 21.945-.776 21.945-1.733s-9.825-1.733-21.945-1.733-21.945.776-21.945 1.733S37.879 84.5 49.999 84.5" opacity=".15"/><path fill="#87898c" d="M55.198 72.949H44.803v5.775h10.395z"/><path fill="#45413c" d="M55.198 72.949H44.803v3.176h10.395z"/><path stroke="#45413c" stroke-miterlimit="10" d="M55.198 72.949H44.803v5.775h10.395z"/><path fill="#87898c" stroke="#45413c" stroke-linecap="round" stroke-linejoin="round" d="M71.368 81.612a.577.577 0 0 1-.578.577H29.21a.577.577 0 0 1-.577-.577v-.578a2.31 2.31 0 0 1 2.31-2.31h38.115a2.31 2.31 0 0 1 2.31 2.31z"/><path fill="#daedf7" d="M82.649 31.966h-30.65a2 2 0 0 0-2 2v25.433a2 2 0 0 0 2 2h30.65a2 2 0 0 0 2-2V33.966a2 2 0 0 0-2-2"/><path fill="#daedf7" d="M84.649 38.662v-4.7a2 2 0 0 0-2-2H52a2 2 0 0 0-2 2v4.7a2.31 2.31 0 0 1 2.31-2.31h30.03a2.317 2.317 0 0 1 2.309 2.31"/><path stroke="#45413c" stroke-linecap="round" stroke-linejoin="round" d="M54.04 38.299v18.843h28.158"/><path fill="#ffe500" stroke="#45413c" stroke-linecap="round" stroke-linejoin="round" d="M61.454 57.142h-4.533v-3.533a1 1 0 0 1 1-1h2.533a1 1 0 0 1 1 1z"/><path fill="#ff6242" stroke="#45413c" stroke-linecap="round" stroke-linejoin="round" d="M69.009 57.142h-4.533v-6.555a1 1 0 0 1 1-1h2.533a1 1 0 0 1 1 1z"/><path fill="#00b8f0" stroke="#45413c" stroke-linecap="round" stroke-linejoin="round" d="M76.564 57.142h-4.533V46.054a1 1 0 0 1 1-1h2.533a1 1 0 0 1 1 1z"/><path stroke="#45413c" stroke-linecap="round" stroke-linejoin="round" d="M72.099 36.352h8.085M75.564 39.817h4.62M79.03 43.282h1.154"/><path stroke="#45413c" stroke-miterlimit="10" d="M82.649 31.966h-30.65a2 2 0 0 0-2 2v25.433a2 2 0 0 0 2 2h30.65a2 2 0 0 0 2-2V33.966a2 2 0 0 0-2-2Z"/></svg>
